X: 182
T: 3me. Etude	 Op. 25
C: F. Chopin
%%abc-version 2.0
%%abcx-abcm2ps-target-version 5.9.1 (29 Sep 2008)
%%abc-creator hum2abc beta
%%abcx-conversion-date 2021/10/03 11:24:06
%%abc-edited-by Mateusz Mrugas
%%abc-edited-by Wojciech Jakubiak-Danek
%%abc-edited-by Tomasz Sierawski
%%abcx-initial-encoding-date 2018-10-17
%%humdrum-veritas 3463872361
%%humdrum-veritas-data 2374592092
%%linebreak <none>
%%barnumbers 0
L: 1/8
M: 3/4
N: Derived from 025-1b-LE-003.krn
P: Etudes pour le Piano
Q: "[quarter] = 120" 1/4=120
%%staves {1 2}
V: 1 clef=treble
V: 2 clef=bass
K: F
[V:1] c2 [I:setbarnb 1]| 
[V:2] z2 | 
[V:1] d<c G<F d/c3/ & Ff Cc Ff | 
[V:2] A,/F,/ x A,/F,/ x A,/F,/ x & C,F,, C,F,, C,F,, | 
[V:1] d<c A<G d/c3/ & Gg Cc Gg | 
[V:2] B,/E,/ x B,/E,/ x B,/E,/ x & C,F,, C,F,, C,F,, | 
[V:1] d<c d<c a/g3/ & Aa Ff dd' | 
[V:2] A,/F,/ x A,/F,/ x =B,/F,/ x & C,F,, D,F,, D,G,, | 
[V:1] d<c a<g a'/g'3/ & Gg cc' c'c'' | 
[V:2] E/_B,/ x[K:clef=treble] B/E/ x e/B/ x[K:clef=bass] & G,C, CG, GC | 
[V:1] d<c G<F d/c3/ & Ff Cc Ff | 
[V:2] A,/F,/ x A,/F,/ x A,/F,/ x & C,F,, C,F,, C,F,, | 
[V:1] d<c A<G d/c3/ & Gg Cc Gg | 
[V:2] B,/E,/ x B,/E,/ x B,/E,/ x & C,F,, C,F,, C,F,, | 
[V:1] Aa Aa Gg & d<c e<d d/c3/ | 
[V:2] A,/F,/ x =B,/F,/ x E/_B,/ x & C,F,, D,G,, G,C, | 
[V:1] d<c d'<c' d''/c''3/ & Ff ff' f'f'' | 
[V:2] A,/F,/ x[K:clef=treble] A/F/ x a/f/ x[K:clef=bass] & C,F,, CF, cF | 
[V:1] d//c//d//c// x G//F//G//F// x d//c//d//c// x & x3// c x F x c x// | 
[V:2] A,/F,/ x A,/F,/ x A,/F,/ x & C,F,, C,F,, C,F,, | 
[V:1] d//c//d//c// x A//G//A//G// x d//c//d//c// x & x3// c x G x cx// | 
[V:2] B,/E,/ x B,/E,/ x B,/E,/ x & C,F,, C,F,, C,F,, | 
[V:1] d//c//d//c// x d//c//d//c// x a//g//a//g// x & Aa Ff dd' | 
[V:2] A,/F,/ x A,/F,/ x =B,/F,/ x & C,F,, D,F,, D,G,, | 
[V:1] d//c//d//c// x a//g//a//g// x c''//b'//c''//b'// x & x3// c x g x b'x// | 
[V:2] E/_B,/ x[K:clef=treble] B/E/ x e/B/ x[K:clef=bass] & G,C, CG, GC | 
[V:1] d//c//d//c// x G//F//G//F// x d//c//d//c// x & x3// c x F x cx// | 
[V:2] A,/F,/ x A,/F,/ x A,/F,/ x & C,F,, C,F,, C,F,, | 
[V:1] d//c//d//c// x A//G//A//G// x d//c//d//c// x & x3// c x G x cx// | 
[V:2] B,/E,/ x B,/E,/ x B,/E,/ x & C,F,, C,F,, C,F,, | 
[V:1] d//c//d//c// x e//d//e//d// x d//c//d//c// x & Aa Aa Gg | 
[V:2] A,/F,/ x =B,/F,/ x _B,/E,/ x & C,F,, D,G,, C,C,, | 
[V:1] d//c//d//c// x d'//c'//d'//c'// x d''//c''//d''//c''// x & x3// c x c' x c''x// | 
[V:2] A,/F,/ x[K:clef=treble] A/F/ x a/f/ x[K:clef=bass] & C,F,, CE, cF | 
[V:1] d<c d<c d/c3/ & Gg Gg Aa | 
[V:2] E/C/ x _E/C/ x F/E/ x & G,C, G,C, CF, | 
[V:1] c<B c<B c/B3/ & Fb Ff Ff | 
[V:2] _E/B,/ x D/B,/ x D/B,/ x & F,B,, F,B,, F,B,, | 
[V:1] c<B c<B c/B3/ & Ff Ff Gg | 
[V:2] _D/B,/ x D/B,/ x D/B,/ x & F,B,, F,B,, _E,_E,, | 
[V:1] B<_A B<A B/A3/ & _Ea Ee Ee | 
[V:2] _D/_A,/ x C/A,/ x C/A,/ x & _E,A,, E,A,, E,A,, | 
[V:1] _B<_A B<A B/A3/ & _Ee Ee Ef | 
[V:2] C/_A,/ x C/A,/ x C/A,/ x & E,G,, E,G,, E,G,, | 
[V:1] _A<G A<G A/G3/ & _Ee Dd Dd | 
[V:2] C/G,/ x =B,/G,/ x B,/G,/ x & D,G,, D,G,, D,G,, | 
[V:1] B<_A b<a b/a3/ & _Ee ee' ef' | 
[V:2] C/_A,/ x[K:clef=treble] c/A/ x c/A/ x & _E,G,, EG, EG, | 
[V:1] _a<g a<g a/g3/ & _ee' dd' dd' | 
[V:2] c/G/ x =B/G/ x B/G/ x & DG, DG, DG, | 
[V:1] g<^f G<F G/F3/ & dd' Dd Ee | 
[V:2] =B/^F/ x[K:clef=bass] =B,/^F,/ x ^C/F,/ x & D^F, D,^F,, D,F,, | 
[V:1] G<^F G<F G/F3/ & Dd ^Cc Cc | 
[V:2] =B,/^F,/ x ^A,/F,/ x A,/F,/ x & ^C,^F,, C,F,, C,F,, | 
[V:1] G<^F G<F G/F3/ & =B,B B,B ^Cc | 
[V:2] G,/^F,/ x G,/F,/ x G,/F,/ x & D,^F,, D,F,, E,F,, | 
[V:1] G<^F G<F ^G/F3/ & =B,B ^A,^A A,A |]  
[V:2] G,/^F,/ x G,/F,/ x F,/E,/ x & D,^F,, ^C,F,, C,F,, |]  
[V:1]  [K:B] G<F F,!accent!F B,!accent!B & B,!accent!B C<B, G/F3/ [I:setbarnb 30]| 
[V:2]  [K:B] D,/F,,/B,,, D,/F,,/B,,, D,/F,,/B,,, | 
[V:1] C!accent!c F,!accent!F C!accent!c & G<F D<C G/F3/ | 
[V:2] E,/F,,/B,,, E,/F,,/B,,, E,/F,,/B,,, | 
[V:1] D!accent!d B,!accent!B G!accent!g & G<F G<F d/c3/ | 
[V:2] D,/F,,/B,,, D,/F,,/B,,, ^E,/B,,/C,, | 
[V:1] C!accent!c F!accent!f f!accent!f' & G<F d<c d'/c'3/ | 
[V:2] A,/=E,/ x E/A,/ x[K:clef=treble] A/E/ x[K:clef=bass] & C,F,, F,C, CF, | 
[V:1] B,!accent!B F,!accent!F B,!accent!B & G<F C<B, G/F3/ | 
[V:2] D,/F,,/B,,, D,/F,,/B,,, D,/F,,/B,,, | 
[V:1] C!accent!c F,!accent!F C!accent!c & G<F D<C G/F3/ | 
[V:2] E,/F,,/B,,, E,/F,,/B,,, E,/F,,/B,,, | 
[V:1] D!accent!d D!accent!d C!accent!c & G<F A<G G/F3/ | 
[V:2] D,/F,,/B,,, ^E,/B,,/C,, A,/=E,/F,, | 
[V:1] B,!accent!B B!accent!b b!accent!b' & G<F g<f g'/f'3/ | 
[V:2] D,/F,,/B,,, D/F,/B,,[K:clef=treble] d/F/B,[K:clef=bass] | 
[V:1] Cc Cc Dd & G<F G<F G/F3/ | 
[V:2] A,/C,/F,, =A,/C,/F,, A,/B,,/F,, | 
[V:1] Ee B,B B,B & =A<G F<E F/E3/ | 
[V:2] =A,/B,,/E,, G,/B,,/E,, G,/B,,/E,, | 
[V:1] B,B B,B Cc & F<E F<E F/E3/ | 
[V:2] =G,/B,,/E,, G,/B,,/E,, G,/=A,,/E,, | 
[V:1] =Dd =A,=A A,A & G<F E<D E/D3/ | 
[V:2] =G,/=A,,/=D,, F,/A,,/D,, F,/A,,/D,, | 
[V:1] =A,A d<c d/c3/ & =D<C Aa Bb | 
[V:2] x2F/C/ x G/C/ x & F,/=A,,/C,, =A,C, A,C, | 
[V:1] =d<c d<c d/c3/ & =Aa Gg Gg | 
[V:2] F/C/ x ^E/C/ x E/C/ x & G,C, G,C, G,C, | 
[V:1] =d<c =d'<c' d'/c'3/ & =Aa =aa' bb' | 
[V:2] F/C/ x[K:clef=treble] f/c/ x g/c/ x & =A,C, =AC AC | 
[V:1] =d'<c' d'<c' d'/c'3/ & =aa' gg' gg' |]  
[V:2] f/c/ x ^e/c/ x e/c/ x & GC GC GC |]  
[V:1]  [K:F] _d'<c' _d<c d/c3/ & _aa' _Aa Bb [I:setbarnb 46]| 
[V:2]  [K:F] f/c/ x[K:clef=bass] F/C/ x G/C/ x & _AC _A,C, A,C, | 
[V:1] _d<c d<c d/c3/ & _Aa Gg Gg | 
[V:2] F/C/ x =E/C/ x E/C/ x & G,C, G,C, G,C, | 
[V:1] =d<c d<c d/c3/ & Ff Ff Gg | 
[V:2] D/C/ x D/C/ x E/C/ x & G,C, G,C, G,C, | 
[V:1] d<c d<c d/c3/ & Ff Ee Ee | 
[V:2] D/C/ x D/C/ x C/B,/ x & G,C, G,C, G,C, | 
[V:1] d/c/ x G/F/ x d/c/ x & F!wedge!f C!wedge!c F!wedge!f | 
[V:2] A,/F,/ x A,/F,/ x A,/F,/ x & C,F,, C,F,, C,F,, | 
[V:1] d/c/ x A/G/ x d/c/ x & G!wedge!g C!wedge!c G!wedge!g | 
[V:2] B,/E,/ x B,/E,/ x B,/E,/ x & C,F,, C,F,, C,F,, | 
[V:1] d/c/ x d/c/ x a/g/ x & A!wedge!a F!wedge!f d!wedge!d' | 
[V:2] A,/F,/ x A,/F,/ x =B,/F,/ x & C,F,, D,F,, D,G,, | 
[V:1] d/c/ x a/g/ x a'/g'/ x & G!wedge!g c!wedge!c' c'!wedge!c'' | 
[V:2] E/B,/ x[K:clef=treble] B/E/ x e/B/ x[K:clef=bass] & G,C, CG, GC | 
[V:1] d/c/ x G/F/ x d/c/ x & F!wedge!f C!wedge!c F!wedge!f | 
[V:2] A,/F,/ x A,/F,/ x A,/F,/ x & C,F,, C,F,, C,F,, | 
[V:1] d/c/ x A/G/ x d/c/ x & G!wedge!g C!wedge!c G!wedge!g | 
[V:2] B,/E,/ x B,/E,/ x B,/E,/ x & C,F,, C,F,, C,F,, | 
[V:1] d/c/ x e/d/ x d/c/ x & A!wedge!a A!wedge!a G!wedge!g | 
[V:2] A,/F,/ x =B,/F,/ x E/_B,/ x & C,F,, D,G,, G,C, | 
[V:1] d/c/ x g/f/ x a/g/ x & F!wedge!f c!wedge!c' c!wedge!c' | 
[V:2] A,/F,/ x[K:clef=treble] A/F/ x B/E/ x & C,F,, CF, CF, | 
[V:1] g/f/ x g'/f'/ x a'/g'/ x & c!wedge!c' c'!wedge!c'' c'!wedge!c'' | 
[V:2] A/F/ x a/f/ x b/e/ x & CF, cF cF | 
[V:1] g'/f'/ x g/f/ x a/g/ x & c'!wedge!c'' c!accent!c' c!accent!c' | 
[V:2] a/f/ x A/F/ x B/E/ x & cF CF, CF, | 
[V:1] g/f/ x g'/f'/ x a'/g'/ x & c!accent!c' c'!accent!c'' c'!accent!c'' | 
[V:2] A/F/ x a/f/ x b/e/ x & CF, cF cF | 
[V:1] g'/f'/ x g'/^f'/ x =f'/e'/ x & c'!accent!c'' =b!wedge!b' b!wedge!b' | 
[V:2] a/f/ x a/^d/ x ^g/=d/ x & c!wedge!F =B!wedge!B, B!wedge!E | 
[V:1] f'/e'/ x e'/d'/ x d'/c'/ x & a!wedge!a' a!wedge!a' g!wedge!g' | 
[V:2] =g/^c/ x d/_B/ x e/B/ x & A!wedge!A, G!wedge!B, G!wedge!=C | 
[V:1] d'/c'/ x g/^f/ x =f/e/ x & f!wedge!f' =B!wedge!b B!wedge!b | 
[V:2] A/F/ x[K:clef=bass] A/^D/ x ^G/=D/ x & C!wedge!F, =B,!wedge!B,, B,!wedge!E, | 
[V:1] f/e/ x e/d/ x d/c/ x & A!wedge!a A!wedge!a G!wedge!g | 
[V:2] =G/^C/ x D/_B,/ x E/B,/ x & A,!wedge!A,, G,!wedge!B,, G,!wedge!=C, | 
[V:1] d/c/ x g/f/ x a/g/ x & F!wedge!f cc' cc' | 
[V:2] A,/F,/ x A,/F,/ x B,/E,/ x & C,F,, C,F,, C,F,, | 
[V:1] g/f/ x g/f/ x a/g/ x & cc' cc' cc' | 
[V:2] A,/F,/ x A,/F,/ x B,/E,/ x & C,F,, C,F,, C,F,, | 
[V:1] g/f/ x g/f/ x g/f/ x & cc' cc' cc' | 
[V:2] A,/F,/ xx4 & C,F,,.F,,,2!arpeggio![A,2C,2F,,2] | 
[V:1] g//f//g//f// x g//f//g//f// x g//f//g//f// x & cc' cc' cc' | 
[V:2] !arpeggio![A2C2F,2].F,,,2!arpeggio![A,2C,2F,,2] | 
[V:1] g//f//g//f// g//f//g//f// g//f//g//f// g//f//g//f// g//f//g//f// g//f//g//f// & cc' cc' cc' | 
[V:2] !arpeggio![A2C2F,2]z2z2 | 
[V:1] !trill![fc]>e f//^g//b//a// =b//d'//c'//e'// =g'//f'//^g'//_b'// a'//=b'//d''//c''// | 
[V:2] z6 | 
[V:1] .f''2z2[A2C2A,2] | 
[V:2] z2z2[C,2C,,2] | 
[V:1] [A6F6A,6] | 
[V:2] [F,,6F,,,6] | 
[V:1] !fermata![A6F6A,6] |]  
[V:2] !fermata![C,6F,,6] |]
